Newaita-dark/devices/22/network-cellular.svg

<svg height="22pt" viewBox="0 0 22 22" width="22pt" xmlns="http://www.w3.org/2000/svg" xmlns:xlink="http://www.w3.org/1999/xlink"><linearGradient id="a" gradientTransform="matrix(.0406766 0 0 .0429729 .529437 9.239164)" gradientUnits="userSpaceOnUse" x1="254" x2="254" y1="233.5" y2="254.66667"><stop offset="0" stop-opacity=".27451"/><stop offset="1" stop-opacity="0"/></linearGradient><linearGradient id="b"><stop offset="0" stop-opacity=".313725"/><stop offset=".222222" stop-opacity=".27451"/><stop offset="1" stop-opacity="0"/></linearGradient><radialGradient id="c" cx="450.90894" cy="189.57936" gradientTransform="matrix(.00000012 -.0537161 -.0966889 -.00000007 36.067218 43.721792)" gradientUnits="userSpaceOnUse" r="21.166656" xlink:href="#b"/><radialGradient id="d" cx="450.90894" cy="189.57936" gradientTransform="matrix(-.00000012 .0537161 .0966889 .00000007 -14.237009 -5.175142)" gradientUnits="userSpaceOnUse" r="21.166656" xlink:href="#b"/><radialGradient id="e" cx="450.90894" cy="189.57936" gradientTransform="matrix(-.00000012 -.0537161 .0966889 -.00000007 -14.237009 43.721792)" gradientUnits="userSpaceOnUse" r="21.166656" xlink:href="#b"/><radialGradient id="f" cx="450.90894" cy="189.57936" gradientTransform="matrix(.00000012 .0537161 -.0966889 .00000007 36.067217 -5.175142)" gradientUnits="userSpaceOnUse" r="21.166656" xlink:href="#b"/><linearGradient id="g" gradientUnits="userSpaceOnUse" x1="10.9151166" x2="10.9151166" y1="19.27333515" y2="1.99106705676"><stop offset="0" stop-color="#66bb6a"/><stop offset="1" stop-color="#81c784"/></linearGradient><linearGradient id="h" gradientUnits="userSpaceOnUse" x1="13.64388" x2="13.64388" y1="19.27332442218" y2="1.99107551259"><stop offset="0" stop-color="#424242"/><stop offset="1" stop-color="#616161"/></linearGradient><path d="m3.867188 19.273438h14.097656v.910156h-14.097656zm0 0" fill="url(#a)"/><path d="m17.964844 19.273438h1.820312v-.910157h-1.820312zm0 0" fill="url(#c)"/><path d="m3.867188 19.273438h-1.820313v.910156h1.820313zm0 0" fill="url(#d)"/><path d="m3.867188 19.273438h-1.820313v-.910157h1.820313zm0 0" fill="url(#e)"/><path d="m17.964844 19.273438h1.820312v.910156h-1.820312zm0 0" fill="url(#f)"/><path d="m3.183594 1.992188h15.464844c.5 0 .90625.40625.90625.910156v15.460937c0 .503907-.40625.910157-.90625.910157h-15.464844c-.503906 0-.910156-.40625-.910156-.910157v-15.460937c0-.503906.40625-.910156.910156-.910156zm0 0" fill="url(#g)"/><path d="m3.183594 1.992188c-.503906 0-.910156.40625-.910156.910156v.167968c0-.503906.40625-.910156.910156-.910156h15.464844c.503906 0 .90625.40625.90625.910156v-.167968c0-.503906-.402344-.910156-.90625-.910156zm0 0" fill="#fff" fill-opacity=".392157"/><path d="m74.083834-168.640791h359.874725c11.635253 0 21.088895 9.453643 21.088895 21.179796v359.783824c0 11.726153-9.453642 21.179796-21.088895 21.179796h-359.874725c-11.726152 0-21.179795-9.453643-21.179795-21.179796v-359.783824c0-11.726153 9.453643-21.179796 21.179795-21.179796zm0 0" fill="none" stroke="#212121" stroke-linecap="round" stroke-linejoin="round" stroke-width="3" transform="matrix(.0429729 0 0 .0429729 0 9.239163)"/><path d="m7.070312 3.609375c-1.558593 1.5625-2.523437 3.722656-2.523437 6.113281s.964844 4.550782 2.523437 6.113282l.964844-.96875c-1.3125-1.3125-2.121094-3.132813-2.121094-5.144532 0-2.011718.808594-3.832031 2.121094-5.144531zm10.308594 1.933594-.96875.964843c.820313.820313 1.328125 1.957032 1.328125 3.214844 0 1.257813-.507812 2.394532-1.328125 3.214844l.96875.964844c1.066406-1.066406 1.722656-2.542969 1.722656-4.179688 0-1.636718-.65625-3.113281-1.722656-4.179687zm-8.378906 0c-1.066406 1.066406-1.722656 2.542969-1.722656 4.179687 0 1.636719.65625 3.113282 1.722656 4.179688l.964844-.964844c-.816406-.820312-1.324219-1.957031-1.324219-3.214844 0-1.257812.507813-2.394531 1.324219-3.214844zm4.1875 1.449219c-1.511719 0-2.726562 1.21875-2.726562 2.730468 0 1.191406.757812 2.203125 1.820312 2.574219v6.976563h1.816406v-6.976563c1.0625-.371094 1.820313-1.382813 1.820313-2.574219 0-1.511718-1.21875-2.730468-2.730469-2.730468zm0 0" fill="url(#h)"/><g fill-opacity=".235294"><path d="m7.070312 3.609375c-1.558593 1.5625-2.523437 3.722656-2.523437 6.113281 0 .050782 0 .105469.003906.15625.039063-2.328125.992188-4.425781 2.519531-5.953125l.808594.8125c.050782-.054687.105469-.109375.15625-.160156zm10.308594 1.933594-.96875.964843c.054688.050782.105469.105469.15625.160157l.8125-.8125c1.03125 1.035156 1.679688 2.453125 1.71875 4.023437.003906-.050781.003906-.105468.003906-.15625 0-1.636718-.65625-3.113281-1.722656-4.179687zm-8.378906 0c-1.066406 1.066406-1.722656 2.542969-1.722656 4.179687v.15625c.042968-1.570312.691406-2.988281 1.722656-4.023437l.8125.8125c.050781-.054688.101562-.109375.152344-.160157zm4.1875 1.449219c-1.511719 0-2.726562 1.21875-2.726562 2.730468 0 .054688 0 .105469.003906.15625.082031-1.4375 1.265625-2.570312 2.722656-2.570312 1.460938 0 2.644531 1.132812 2.726562 2.570312.003907-.050781.003907-.101562.003907-.15625 0-1.511718-1.21875-2.730468-2.730469-2.730468zm-4.542969 2.886718c-.003906.054688-.003906.105469-.003906.160156 0 1.175782.445313 2.246094 1.171875 3.050782l.152344-.152344c-.785156-.789062-1.28125-1.863281-1.320313-3.058594zm9.089844 0c-.039063 1.195313-.539063 2.269532-1.324219 3.058594l.15625.152344c.726563-.804688 1.171875-1.875 1.171875-3.050782 0-.054687-.003906-.105468-.003906-.160156zm-11.820313 0v.160156c0 1.929688.746094 3.683594 1.964844 4.984376l.15625-.15625c-1.277344-1.277344-2.078125-3.035157-2.121094-4.988282zm0 0" fill="#fff"/><path d="m7.839844 4.761719c-1.199219 1.296875-1.925782 3.03125-1.925782 4.945312v.199219c.050782-1.933594.851563-3.675781 2.121094-4.949219zm8.765625 1.933593-.195313.195313c.777344.777344 1.273438 1.835937 1.324219 3.015625 0-.066406.003906-.132812.003906-.199219 0-1.15625-.429687-2.210937-1.132812-3.011719zm-6.832031 0c-.707032.800782-1.132813 1.855469-1.132813 3.011719 0 .066407.003906.132813.003906.199219.050781-1.179688.546875-2.238281 1.320313-3.015625zm.695312 3.210938c-.007812.066406-.007812.132812-.007812.199219 0 1.191406.757812 2.199219 1.820312 2.574219v-.398438c-1.003906-.351562-1.734375-1.269531-1.8125-2.375zm5.441406 0c-.078125 1.105469-.808594 2.023438-1.8125 2.375v.398438c1.0625-.375 1.820313-1.382813 1.820313-2.574219 0-.066407-.003907-.132813-.007813-.199219zm-11.359375 0c-.003906.066406-.003906.132812-.003906.199219 0 2.390625.964844 4.550781 2.523437 6.109375l.964844-.964844c-.066406-.066406-.132812-.132812-.195312-.203125l-.769532.769531c-1.515624-1.515625-2.46875-3.597656-2.519531-5.910156zm2.730469 0c-.003906.066406-.003906.132812-.003906.199219 0 1.632812.65625 3.109375 1.722656 4.179687l.964844-.964844c-.066406-.066406-.128906-.136718-.191406-.207031l-.773438.773438c-1.023438-1.023438-1.667969-2.425781-1.71875-3.980469zm11.816406 0c-.050781 1.554688-.699218 2.957031-1.71875 3.980469l-.773437-.773438c-.0625.070313-.128907.140625-.195313.207031l.96875.964844c1.066406-1.070312 1.722656-2.546875 1.722656-4.179687 0-.066407 0-.132813-.003906-.199219zm-6.816406 9.351562v.015626h1.816406v-.015626zm0 0"/><path d="m3.183594 19.273438c-.503906 0-.910156-.40625-.910156-.910157v-.226562c0 .503906.40625.910156.910156.910156h15.464844c.503906 0 .90625-.40625.90625-.910156v.226562c0 .503907-.402344.910157-.90625.910157zm0 0"/></g><path d="m621.844705 317.450004c-137.080684 137.424244-221.940155 327.413262-221.940155 537.672355 0 210.259094 84.859471 400.248111 221.940155 537.672356l84.859471-85.203032c-115.436366-115.436365-186.553412-275.535609-186.553412-452.469324 0-176.933714 71.117046-337.032959 186.553412-452.469324zm906.656451 170.062502-85.203032 84.859471c72.147728 72.147728 116.810608 172.123866 116.810608 282.750382 0 110.626517-44.66288 210.602654-116.810608 282.750383l85.203032 84.85947c93.792046-93.792046 151.510229-223.657957 151.510229-367.609853 0-143.951895-57.718183-273.817806-151.510229-367.609853zm-736.93751 0c-93.792046 93.792047-151.510229 223.657958-151.510229 367.609853 0 143.951896 57.718183 273.817807 151.510229 367.609853l84.859471-84.85947c-71.804167-72.147729-116.467047-172.123866-116.467047-282.750383 0-110.626516 44.66288-210.602654 116.467047-282.750382zm368.296975 127.460987c-132.957957 0-239.805306 107.19091-239.805306 240.148866 0 104.785986 66.650758 193.768185 160.099244 226.406443v613.59925h159.755684v-613.59925c93.448486-32.638258 160.099244-121.620457 160.099244-226.406443 0-132.957956-107.19091-240.148866-240.148866-240.148866zm0 0" fill="none" stroke="#212121" stroke-linecap="round" stroke-linejoin="round" stroke-width="11.338583" transform="scale(.0113699)"/></svg>

<?xml version="1.0" encoding="UTF-8"?>
<svg xmlns="http://www.w3.org/2000/svg" xmlns:xlink="http://www.w3.org/1999/xlink" width="22pt" height="22pt" viewBox="0 0 22 22" version="1.1">
<defs>
<linearGradient id="linear0" gradientUnits="userSpaceOnUse" x1="254" y1="233.5" x2="254" y2="254.66667" gradientTransform="matrix(0.0406766,0,0,0.0429729,0.529437,9.239164)">
<stop offset="0" style="stop-color:rgb(0%,0%,0%);stop-opacity:0.27451;"/>
<stop offset="1" style="stop-color:rgb(0%,0%,0%);stop-opacity:0;"/>
</linearGradient>
<radialGradient id="radial0" gradientUnits="userSpaceOnUse" cx="450.90894" cy="189.57936" fx="450.90894" fy="189.57936" r="21.166656" gradientTransform="matrix(0.000000119742,-0.0537161,-0.0966889,-0.0000000698078,36.067218,43.721792)">
<stop offset="0" style="stop-color:rgb(0%,0%,0%);stop-opacity:0.313725;"/>
<stop offset="0.222222" style="stop-color:rgb(0%,0%,0%);stop-opacity:0.27451;"/>
<stop offset="1" style="stop-color:rgb(0%,0%,0%);stop-opacity:0;"/>
</radialGradient>
<radialGradient id="radial1" gradientUnits="userSpaceOnUse" cx="450.90894" cy="189.57936" fx="450.90894" fy="189.57936" r="21.166656" gradientTransform="matrix(-0.000000119742,0.0537161,0.0966889,0.0000000698078,-14.237009,-5.175142)">
<stop offset="0" style="stop-color:rgb(0%,0%,0%);stop-opacity:0.313725;"/>
<stop offset="0.222222" style="stop-color:rgb(0%,0%,0%);stop-opacity:0.27451;"/>
<stop offset="1" style="stop-color:rgb(0%,0%,0%);stop-opacity:0;"/>
</radialGradient>
<radialGradient id="radial2" gradientUnits="userSpaceOnUse" cx="450.90894" cy="189.57936" fx="450.90894" fy="189.57936" r="21.166656" gradientTransform="matrix(-0.000000119742,-0.0537161,0.0966889,-0.0000000698078,-14.237009,43.721792)">
<stop offset="0" style="stop-color:rgb(0%,0%,0%);stop-opacity:0.313725;"/>
<stop offset="0.222222" style="stop-color:rgb(0%,0%,0%);stop-opacity:0.27451;"/>
<stop offset="1" style="stop-color:rgb(0%,0%,0%);stop-opacity:0;"/>
</radialGradient>
<radialGradient id="radial3" gradientUnits="userSpaceOnUse" cx="450.90894" cy="189.57936" fx="450.90894" fy="189.57936" r="21.166656" gradientTransform="matrix(0.000000119742,0.0537161,-0.0966889,0.0000000698078,36.067217,-5.175142)">
<stop offset="0" style="stop-color:rgb(0%,0%,0%);stop-opacity:0.313725;"/>
<stop offset="0.222222" style="stop-color:rgb(0%,0%,0%);stop-opacity:0.27451;"/>
<stop offset="1" style="stop-color:rgb(0%,0%,0%);stop-opacity:0;"/>
</radialGradient>
<linearGradient id="linear1" gradientUnits="userSpaceOnUse" x1="254" y1="233.5" x2="254" y2="-168.66667" gradientTransform="matrix(0.0429729,0,0,0.0429729,0,9.239163)">
<stop offset="0" style="stop-color:rgb(40%,73.333333%,41.568627%);stop-opacity:1;"/>
<stop offset="1" style="stop-color:rgb(50.588235%,78.039216%,51.764706%);stop-opacity:1;"/>
</linearGradient>
<linearGradient id="linear2" gradientUnits="userSpaceOnUse" x1="1200" y1="1695.1182" x2="1200" y2="175.11812" gradientTransform="matrix(0.0113699,0,0,0.0113699,0,0)">
<stop offset="0" style="stop-color:rgb(25.882353%,25.882353%,25.882353%);stop-opacity:1;"/>
<stop offset="1" style="stop-color:rgb(38.039216%,38.039216%,38.039216%);stop-opacity:1;"/>
</linearGradient>
</defs>
<g id="surface1">
<path style=" stroke:none;fill-rule:nonzero;fill:url(#linear0);" d="M 3.867188 19.273438 L 17.964844 19.273438 L 17.964844 20.183594 L 3.867188 20.183594 Z M 3.867188 19.273438 "/>
<path style=" stroke:none;fill-rule:nonzero;fill:url(#radial0);" d="M 17.964844 19.273438 L 19.785156 19.273438 L 19.785156 18.363281 L 17.964844 18.363281 Z M 17.964844 19.273438 "/>
<path style=" stroke:none;fill-rule:nonzero;fill:url(#radial1);" d="M 3.867188 19.273438 L 2.046875 19.273438 L 2.046875 20.183594 L 3.867188 20.183594 Z M 3.867188 19.273438 "/>
<path style=" stroke:none;fill-rule:nonzero;fill:url(#radial2);" d="M 3.867188 19.273438 L 2.046875 19.273438 L 2.046875 18.363281 L 3.867188 18.363281 Z M 3.867188 19.273438 "/>
<path style=" stroke:none;fill-rule:nonzero;fill:url(#radial3);" d="M 17.964844 19.273438 L 19.785156 19.273438 L 19.785156 20.183594 L 17.964844 20.183594 Z M 17.964844 19.273438 "/>
<path style=" stroke:none;fill-rule:nonzero;fill:url(#linear1);" d="M 3.183594 1.992188 L 18.648438 1.992188 C 19.148438 1.992188 19.554688 2.398438 19.554688 2.902344 L 19.554688 18.363281 C 19.554688 18.867188 19.148438 19.273438 18.648438 19.273438 L 3.183594 19.273438 C 2.679688 19.273438 2.273438 18.867188 2.273438 18.363281 L 2.273438 2.902344 C 2.273438 2.398438 2.679688 1.992188 3.183594 1.992188 Z M 3.183594 1.992188 "/>
<path style=" stroke:none;fill-rule:nonzero;fill:rgb(100%,100%,100%);fill-opacity:0.392157;" d="M 3.183594 1.992188 C 2.679688 1.992188 2.273438 2.398438 2.273438 2.902344 L 2.273438 3.070312 C 2.273438 2.566406 2.679688 2.160156 3.183594 2.160156 L 18.648438 2.160156 C 19.152344 2.160156 19.554688 2.566406 19.554688 3.070312 L 19.554688 2.902344 C 19.554688 2.398438 19.152344 1.992188 18.648438 1.992188 Z M 3.183594 1.992188 "/>
<path style="fill:none;stroke-width:3;stroke-linecap:round;stroke-linejoin:round;stroke:rgb(12.941176%,12.941176%,12.941176%);stroke-opacity:1;stroke-miterlimit:4;" d="M 74.083834 -168.640791 L 433.958559 -168.640791 C 445.593812 -168.640791 455.047454 -159.187148 455.047454 -147.460995 L 455.047454 212.322829 C 455.047454 224.048982 445.593812 233.502625 433.958559 233.502625 L 74.083834 233.502625 C 62.357682 233.502625 52.904039 224.048982 52.904039 212.322829 L 52.904039 -147.460995 C 52.904039 -159.187148 62.357682 -168.640791 74.083834 -168.640791 Z M 74.083834 -168.640791 " transform="matrix(0.0429729,0,0,0.0429729,0,9.239163)"/>
<path style=" stroke:none;fill-rule:nonzero;fill:url(#linear2);" d="M 7.070312 3.609375 C 5.511719 5.171875 4.546875 7.332031 4.546875 9.722656 C 4.546875 12.113281 5.511719 14.273438 7.070312 15.835938 L 8.035156 14.867188 C 6.722656 13.554688 5.914062 11.734375 5.914062 9.722656 C 5.914062 7.710938 6.722656 5.890625 8.035156 4.578125 Z M 17.378906 5.542969 L 16.410156 6.507812 C 17.230469 7.328125 17.738281 8.464844 17.738281 9.722656 C 17.738281 10.980469 17.230469 12.117188 16.410156 12.9375 L 17.378906 13.902344 C 18.445312 12.835938 19.101562 11.359375 19.101562 9.722656 C 19.101562 8.085938 18.445312 6.609375 17.378906 5.542969 Z M 9 5.542969 C 7.933594 6.609375 7.277344 8.085938 7.277344 9.722656 C 7.277344 11.359375 7.933594 12.835938 9 13.902344 L 9.964844 12.9375 C 9.148438 12.117188 8.640625 10.980469 8.640625 9.722656 C 8.640625 8.464844 9.148438 7.328125 9.964844 6.507812 Z M 13.1875 6.992188 C 11.675781 6.992188 10.460938 8.210938 10.460938 9.722656 C 10.460938 10.914062 11.21875 11.925781 12.28125 12.296875 L 12.28125 19.273438 L 14.097656 19.273438 L 14.097656 12.296875 C 15.160156 11.925781 15.917969 10.914062 15.917969 9.722656 C 15.917969 8.210938 14.699219 6.992188 13.1875 6.992188 Z M 13.1875 6.992188 "/>
<path style=" stroke:none;fill-rule:nonzero;fill:rgb(100%,100%,100%);fill-opacity:0.235294;" d="M 7.070312 3.609375 C 5.511719 5.171875 4.546875 7.332031 4.546875 9.722656 C 4.546875 9.773438 4.546875 9.828125 4.550781 9.878906 C 4.589844 7.550781 5.542969 5.453125 7.070312 3.925781 L 7.878906 4.738281 C 7.929688 4.683594 7.984375 4.628906 8.035156 4.578125 Z M 17.378906 5.542969 L 16.410156 6.507812 C 16.464844 6.558594 16.515625 6.613281 16.566406 6.667969 L 17.378906 5.855469 C 18.410156 6.890625 19.058594 8.308594 19.097656 9.878906 C 19.101562 9.828125 19.101562 9.773438 19.101562 9.722656 C 19.101562 8.085938 18.445312 6.609375 17.378906 5.542969 Z M 9 5.542969 C 7.933594 6.609375 7.277344 8.085938 7.277344 9.722656 C 7.277344 9.773438 7.277344 9.828125 7.277344 9.878906 C 7.320312 8.308594 7.96875 6.890625 9 5.855469 L 9.8125 6.667969 C 9.863281 6.613281 9.914062 6.558594 9.964844 6.507812 Z M 13.1875 6.992188 C 11.675781 6.992188 10.460938 8.210938 10.460938 9.722656 C 10.460938 9.777344 10.460938 9.828125 10.464844 9.878906 C 10.546875 8.441406 11.730469 7.308594 13.1875 7.308594 C 14.648438 7.308594 15.832031 8.441406 15.914062 9.878906 C 15.917969 9.828125 15.917969 9.777344 15.917969 9.722656 C 15.917969 8.210938 14.699219 6.992188 13.1875 6.992188 Z M 8.644531 9.878906 C 8.640625 9.933594 8.640625 9.984375 8.640625 10.039062 C 8.640625 11.214844 9.085938 12.285156 9.8125 13.089844 L 9.964844 12.9375 C 9.179688 12.148438 8.683594 11.074219 8.644531 9.878906 Z M 17.734375 9.878906 C 17.695312 11.074219 17.195312 12.148438 16.410156 12.9375 L 16.566406 13.089844 C 17.292969 12.285156 17.738281 11.214844 17.738281 10.039062 C 17.738281 9.984375 17.734375 9.933594 17.734375 9.878906 Z M 5.914062 9.878906 C 5.914062 9.933594 5.914062 9.984375 5.914062 10.039062 C 5.914062 11.96875 6.660156 13.722656 7.878906 15.023438 L 8.035156 14.867188 C 6.757812 13.589844 5.957031 11.832031 5.914062 9.878906 Z M 5.914062 9.878906 "/>
<path style=" stroke:none;fill-rule:nonzero;fill:rgb(0%,0%,0%);fill-opacity:0.235294;" d="M 7.839844 4.761719 C 6.640625 6.058594 5.914062 7.792969 5.914062 9.707031 C 5.914062 9.773438 5.914062 9.839844 5.914062 9.90625 C 5.964844 7.972656 6.765625 6.230469 8.035156 4.957031 Z M 16.605469 6.695312 L 16.410156 6.890625 C 17.1875 7.667969 17.683594 8.726562 17.734375 9.90625 C 17.734375 9.839844 17.738281 9.773438 17.738281 9.707031 C 17.738281 8.550781 17.308594 7.496094 16.605469 6.695312 Z M 9.773438 6.695312 C 9.066406 7.496094 8.640625 8.550781 8.640625 9.707031 C 8.640625 9.773438 8.644531 9.839844 8.644531 9.90625 C 8.695312 8.726562 9.191406 7.667969 9.964844 6.890625 Z M 10.46875 9.90625 C 10.460938 9.972656 10.460938 10.039062 10.460938 10.105469 C 10.460938 11.296875 11.21875 12.304688 12.28125 12.679688 L 12.28125 12.28125 C 11.277344 11.929688 10.546875 11.011719 10.46875 9.90625 Z M 15.910156 9.90625 C 15.832031 11.011719 15.101562 11.929688 14.097656 12.28125 L 14.097656 12.679688 C 15.160156 12.304688 15.917969 11.296875 15.917969 10.105469 C 15.917969 10.039062 15.914062 9.972656 15.910156 9.90625 Z M 4.550781 9.90625 C 4.546875 9.972656 4.546875 10.039062 4.546875 10.105469 C 4.546875 12.496094 5.511719 14.65625 7.070312 16.214844 L 8.035156 15.25 C 7.96875 15.183594 7.902344 15.117188 7.839844 15.046875 L 7.070312 15.816406 C 5.554688 14.300781 4.601562 12.21875 4.550781 9.90625 Z M 7.28125 9.90625 C 7.277344 9.972656 7.277344 10.039062 7.277344 10.105469 C 7.277344 11.738281 7.933594 13.214844 9 14.285156 L 9.964844 13.320312 C 9.898438 13.253906 9.835938 13.183594 9.773438 13.113281 L 9 13.886719 C 7.976562 12.863281 7.332031 11.460938 7.28125 9.90625 Z M 19.097656 9.90625 C 19.046875 11.460938 18.398438 12.863281 17.378906 13.886719 L 16.605469 13.113281 C 16.542969 13.183594 16.476562 13.253906 16.410156 13.320312 L 17.378906 14.285156 C 18.445312 13.214844 19.101562 11.738281 19.101562 10.105469 C 19.101562 10.039062 19.101562 9.972656 19.097656 9.90625 Z M 12.28125 19.257812 L 12.28125 19.273438 L 14.097656 19.273438 L 14.097656 19.257812 Z M 12.28125 19.257812 "/>
<path style=" stroke:none;fill-rule:nonzero;fill:rgb(0%,0%,0%);fill-opacity:0.235294;" d="M 3.183594 19.273438 C 2.679688 19.273438 2.273438 18.867188 2.273438 18.363281 L 2.273438 18.136719 C 2.273438 18.640625 2.679688 19.046875 3.183594 19.046875 L 18.648438 19.046875 C 19.152344 19.046875 19.554688 18.640625 19.554688 18.136719 L 19.554688 18.363281 C 19.554688 18.867188 19.152344 19.273438 18.648438 19.273438 Z M 3.183594 19.273438 "/>
<path style="fill:none;stroke-width:11.338583;stroke-linecap:round;stroke-linejoin:round;stroke:rgb(12.941176%,12.941176%,12.941176%);stroke-opacity:1;stroke-miterlimit:4;" d="M 621.844705 317.450004 C 484.764021 454.874248 399.90455 644.863266 399.90455 855.122359 C 399.90455 1065.381453 484.764021 1255.37047 621.844705 1392.794715 L 706.704176 1307.591683 C 591.26781 1192.155318 520.150764 1032.056074 520.150764 855.122359 C 520.150764 678.188645 591.26781 518.0894 706.704176 402.653035 Z M 1528.501156 487.512506 L 1443.298124 572.371977 C 1515.445852 644.519705 1560.108732 744.495843 1560.108732 855.122359 C 1560.108732 965.748876 1515.445852 1065.725013 1443.298124 1137.872742 L 1528.501156 1222.732212 C 1622.293202 1128.940166 1680.011385 999.074255 1680.011385 855.122359 C 1680.011385 711.170464 1622.293202 581.304553 1528.501156 487.512506 Z M 791.563646 487.512506 C 697.7716 581.304553 640.053417 711.170464 640.053417 855.122359 C 640.053417 999.074255 697.7716 1128.940166 791.563646 1222.732212 L 876.423117 1137.872742 C 804.61895 1065.725013 759.95607 965.748876 759.95607 855.122359 C 759.95607 744.495843 804.61895 644.519705 876.423117 572.371977 Z M 1159.860621 614.973493 C 1026.902664 614.973493 920.055315 722.164403 920.055315 855.122359 C 920.055315 959.908345 986.706073 1048.890544 1080.154559 1081.528802 L 1080.154559 1695.128052 L 1239.910243 1695.128052 L 1239.910243 1081.528802 C 1333.358729 1048.890544 1400.009487 959.908345 1400.009487 855.122359 C 1400.009487 722.164403 1292.818577 614.973493 1159.860621 614.973493 Z M 1159.860621 614.973493 " transform="matrix(0.0113699,0,0,0.0113699,0,0)"/>
</g>
</svg>
